Gruvbox-Material-Icons/actions/16/distribute-horizontal-page.svg

<svg xmlns="http://www.w3.org/2000/svg" width="16" height="16" viewBox="0 0 16 16">
 <defs>
  <style id="current-color-scheme" type="text/css">
   .ColorScheme-Text { color:#ebdbb2; } .ColorScheme-Highlight { color:#458588; }
  </style>
 </defs>
 <path style="fill:currentColor" class="ColorScheme-Text" d="M 1 0.98046875 L 1 14.980469 L 12 14.980469 L 15 11.980469 L 15 0.98046875 L 1 0.98046875 z M 3 2.9804688 L 13 2.9804688 L 13 12.980469 L 3 12.980469 L 3 2.9804688 z M 4 3.9804688 L 4 11.980469 L 7 11.980469 L 7 3.9804688 L 4 3.9804688 z M 9 3.9804688 L 9 11.980469 L 12 11.980469 L 12 3.9804688 L 9 3.9804688 z"/>
</svg>

<svg width="16" height="16" viewBox="0 0 16 16" xmlns="http://www.w3.org/2000/svg">
  <defs>
    <style id="current-color-scheme" type="text/css">.ColorScheme-Text { color:#ebdbb2; } .ColorScheme-Highlight { color:#458588; }</style>
  </defs>
  <path class="ColorScheme-Text" d="m1 0.9805v14h11l3-3v-11h-14zm2 2h10v10h-10v-10zm1 1v8h3v-8h-3zm5 0v8h3v-8h-3z" fill="currentColor"/>
</svg>
